X:102
T:Dead maids land - Paddon
C:Taken down from Thomas Paddon, Holcombe Burnell.
%%VWML:SBG-1-1-513-0
F:http://www.vwml.org/record/SBG/1/1/513
Z:Original Sibleius Transcription by Martin and Shan Graebe
L:1/8
M:6/8
I:linebreak $
K:D
z z z2 B | G3/2 F/ E F A | (B3 B2) B | d3/2 c/ B A2 B | d3- d2 B | d2 d/ d/ ce c |$ 
B2 d/ d/ F2 B | F3/2 E/ D D2 E/ F/ | (d>cB) (^A2 B | d3 d2) B | A3/2 F/ E D2 E/ F/ | B3 z3 |] 
T:Dead maids land - Chappell
T:“I sowed the seeds of Love,” from Chappell, p. 522.
L:1/8
M:4/4
I:linebreak $
K:D
d>B | BA FD E2 F2 | B6 B>c | d2 d2 ce dc | B6 Bc | d2 d2 ce dc |$ B2 B2 F2 d>B | BA FD E2 F2 | 
(B4 d3) B | BA FD E2 F2 | (d2 B4)  |] 
T:Dead maids land - Joyce
T:see also VII air from “Alleyn’s Anthology” & “Rue & Thyme”.
T:“Come all you maids where’er you be”. Joyce’s Anc. Irish Music No. 74.
L:1/8
M:4/4
I:linebreak $
K:C
(cB) | A2 (AG) E2 (DE) | G2 G2 G2 Bd | e2 e2 d2 e2 | c4 E2 cd | e2 e2 d2 e2 |$ A2 AG E2 DE | 
G2 G2 G>ABd | c4 B3 c | A3 G (ED)(EG) | A6 |] X:103
T:Everlasting circle - Nankivell
C:Taken down from Wm. Nankivell, by F.W.B. 1890, same from Parsons.
%%VWML:SBG-1-1-491-0
F:http://www.vwml.org/record/SBG/1/1/491
Z:Original Sibleius Transcription by Martin and Shan Graebe
L:1/8
M:4/4
I:linebreak $
K:Ab
A2 A A A2 A2 | B B G2 A2 A2 | c2 c2 c2 c2 | c c d c B2 E E | c2 c2 B2 E2 |$ 
A3/2 G/ A3/2 B/ c2 A B | c2 c2 cB dG | A4 z2 A2 | B4 B2 | c>Bc>d !fermata!e2 f>e | e2 c2 cB dG | 
A8 |] 
T:Everlasting circle - Setter
T:Taken down from Will. Setter, by F.W.B. 1889.
L:1/4
M:4/4
I:linebreak $
K:F
C | C F F F | G3/2 G/ G G | A A A G | F/G/A/B/ c c |$ c/c/c/d/ c | c B A G | F/>F/F/>G/ A A/>B/ | 
c B A G | F2  |] 
T:Everlasting circle - Woodrich
T:Taken down from J. Woodrich by F.W.B. Dec. 26. 1890.
L:1/8
M:4/4
I:linebreak $
K:Ab
E | A3 B c3 d | e3 c A3 E | A3 B c3 d | ee c2 B3 e | e3 e B3 c |$ d3 z z e2 e | e3 e edBG | 
A>B c>d e2 af | f2 c2 edBG | A6 |] 
T:Everlasting circle - Miss Mason
T:“The Tree in the Valley”. Devonshire; fr. M. H. Mason “Nursery Rhymes & Country Songs”. Metzler 1877
L:1/16
M:2/4
I:linebreak $
K:F
C2 | F2 C2 F2 C C | F G AB c2 C2 | F2 C2 F2 C2 | F G A B c2 A A | c6 c c | d2 c2 F2 G2 |$ A4 G4 | 
F6 C2 | F2 C2 F2 C C | F G AB c2 C2 | F2 C2 F2 C2 |$ F G A B c2 A A || c c d d c2 A A || c6 c c | 
d2 c2 F2 G2 | A4 G4 | F4  |] 
T:Everlasting circle - Olver
T:Taken down from J. Olver by H.Fl.S.  June, 1889
L:1/8
M:4/4
I:linebreak $
K:G
D | G>B AF G>B d>D | G>B A>F G>B d :| B/c/ |$ dc/B/ cB/c/ dc/B/ cA/G/ | GD GD/D/ G/A/B/c/ de/e/ | 
dG/G/ BG/G/ BA G  |] 



